X:22
T:Bonny bunch of roses - hard
C:As taken down from R. Hard by the Schoolmaster, Sth. Brent, Sep. 1888.
%%VWML:SBG-1-1-147-0
F:http://www.vwml.org/record/SBG/1/1/147
Z:Original Sibleius Transcription by Martin and Shan Graebe
L:1/8
M:4/4
I:linebreak $
K:Bb
FGA | B3 c d3 c | (B3 A) F3 D | E2 (FG) A2 FE | D2 B,2 B,3 F | B2 cd d3 c |$ (B3 A) F3 D | 
E2 FG A2 FE | D2 B,2 B,2 B,2 | D2 (E3 D) E2 | F2 G2 F4 | B3 A B2 c2 |$ d2 c2 B4 | c2 d2 d2 e2 | 
dc B3 A F2 | D2 E2 FG AG | FE D2 B,2 B,2 |] 
T:Bonny bunch of roses - sth brent (hard
T:As taken down at Sth. Brent by H.Fl.S. Oct. 1888  
T:[Fair Copy MSS. attributes to R. Hard – Ed.]
M:4/4
L:1/8
M:4/4
I:linebreak $
K:Bb
F | B3 c d3 c | B3 A F2 D2 | EF G2 A2 FE | D3 B, B,2 :| D | EDEF |$ GGFF | BABc | dcBc | c d d e | 
dc BA G3 | EF/G/ BA/G/F | DB, !fermata!B,  |] 
T:Bonny bunch of roses - fry
T:Taken down from Edm. Fry by F.W.B. Jan 4. 1889.
L:1/16
M:2/4
I:linebreak $
K:C
(3GAB | c2d2e2(3dcd | c2 G4 E>F | G2GA _BA (3AGF | G2C2C2 G2 | c2d2e2 (3dcd |$ c2 G4 E>F | 
(5:4:6G2A2_B3AGF | E2C2C2 E2 | F2E2F2(3GAB | c2 G4 G2 | c2d2e2(3dcd |$ c2 G4 EG | c2d2e2(3dcd | 
c2 G4 C2 | G2GA_BA (3AGF | G2C2 C2  |] X:23
T:Chimney sweep (helmore)
C:Taken down from J. Helmore Sth. Brent by F.W.B. September 1888
%%VWML:SBG-1-1-115-0
F:http://www.vwml.org/record/SBG/1/1/115
Z:Original Sibleius Transcription by Martin and Shan Graebe
L:1/8
M:2/4
I:linebreak $
K:Ab
E | A2 c3/2 B/ | A2 (E>D) | C D E F | E3 e/>d/ | c3/2 B/ c d | c B z E | A A A A | F3 F/ F/ |$ 
d B B F | (AG) A B | c2 A c | (BAGF | ED(C)B, | A,2) E E | A2 F F | B2 G2 | A A z2 |] X:24
T:Hal an tow - matthews
C:Sent by J. Matthews, St. Austell, as taken down by him.
%%VWML:SBG-1-1-137-0
F:http://www.vwml.org/record/SBG/1/1/137
Z:Original Sibleius Transcription by Martin and Shan Graeb
L:1/8
M:4/4
I:linebreak $
K:F
F2 FG A2 AB | c2 c2 c2 de | f2 c2 cd c B | A4 F2 z2 | 
F2 FG A2 A B |  c2 c2 de | "alternate"cB cd de|f2 c2 cd cB | A4 F2 z2 | (d2 d2) d2 cB | 
(A2 c2) c2 de | f2 c2 cd cB | (A6 F2) z2 B2 | d2 d2 d2 c B | A2 c2 c2 de |"Alternate"AG AB de| f2 c2 cd cB | (A4 F2) z2 |] 
T:Hal an tow - davis gilbert
T:From Davies Gilbert’s Christmas Carols, 2nd Ed. 1823
T:The “Helston Foray”.
L:1/8
M:4/4
I:linebreak $
K:Eb
E2 E>F E2 GA | B2 B>c B2 cd | e2 B2 Bc BA | G4 E4 :|$ B | c2 c2 c2 BA | GA Bc B2 cd | 
e2 B2 Bc BA | G2 E4 z2 :|
T:Hal an tow - forfar
T:From W.B. Forfar’s “Helson Furry Dance” Cunnock Helston, 1883.
L:1/16
M:2/4
I:linebreak $
K:G
G2>A2B2c2 | d2d2 d2(ef) | g2d2 (ded)c | B4 G4 :: e2e2e2 (dc) | B(cd)e d2(ef) | g2d2 dedc | 
[GB]4 G4 :| 

T:Hal an tow - specimens of cornish &c
T:From “Specimens of Cornish Provincial Dialect 
T:collected by Uncle Jan Trenoodle” Lond. J.R. Smith, 1846.
T:This has been used by Chappell for the words “The Well of S. Keyne”
L:1/8
M:6/8
I:linebreak $
K:F
A2 A A2 G | AcA F2 A | B2 c d2 c/ c/ | (2:3:2BA G2 B | A2 A A G F |$ G ^F G2 D A | B2 c d2 c | 
w: Rob- in Hood and|Little _ _ John They|both are gone to the|fair _ O! And|we will go to the|mer- ry green wood to|see what they do|
(2:3:2BA G3 || A | (A3 A2) F | G3 D2 B | A2 F F2 E | (F3 F2) F |$ A3 G3 | F3 z3 | B3 A2 G | 
w: there _ O!|And|for _ to|chase O! To|chase the buck &|doe _ With|Ha- lan-|tow|Rum- _ ble|
A3 z2 F | G3 ^F3 | G3 z2 A | B2 c d2 c | (2:3:2BA !fermata!G2 z |] 
w: O For|we were|up as|soon as any _|day _ O!|



